images/3234665.svg

<?xml version="1.0" encoding="UTF-8"?>
<svg xmlns="http://www.w3.org/2000/svg" xmlns:xlink="http://www.w3.org/1999/xlink" width="300pt" height="300pt" viewBox="0 0 300 300" version="1.1">
<defs>
<g>
<symbol overflow="visible" id="glyph0-0">
<path style="stroke:none;" d="M 0.796875 2.828125 L 0.796875 -11.28125 L 8.796875 -11.28125 L 8.796875 2.828125 Z M 1.703125 1.9375 L 7.90625 1.9375 L 7.90625 -10.390625 L 1.703125 -10.390625 Z M 1.703125 1.9375 "/>
</symbol>
<symbol overflow="visible" id="glyph0-1">
<path style="stroke:none;" d="M 1.578125 -11.671875 L 3.703125 -11.671875 L 8.875 -1.90625 L 8.875 -11.671875 L 10.40625 -11.671875 L 10.40625 0 L 8.28125 0 L 3.109375 -9.765625 L 3.109375 0 L 1.578125 0 Z M 1.578125 -11.671875 "/>
</symbol>
</g>
</defs>
<g id="surface55681">
<rect x="0" y="0" width="300" height="300" style="fill:rgb(100%,100%,100%);fill-opacity:1;stroke:none;"/>
<path style="fill:none;stroke-width:1.2;stroke-linecap:butt;stroke-linejoin:miter;stroke:rgb(0%,0%,0%);stroke-opacity:1;stroke-miterlimit:10;" d="M 35.820312 229.03125 L 52.132812 219.046875 "/>
<path style="fill:none;stroke-width:1.2;stroke-linecap:butt;stroke-linejoin:miter;stroke:rgb(0%,0%,100%);stroke-opacity:1;stroke-miterlimit:10;" d="M 52.132812 219.046875 L 68.445312 209.058594 "/>
<path style="fill:none;stroke-width:1.2;stroke-linecap:butt;stroke-linejoin:miter;stroke:rgb(0%,0%,100%);stroke-opacity:1;stroke-miterlimit:10;" d="M 68.445312 209.058594 L 85.246094 218.195312 "/>
<path style="fill:none;stroke-width:1.2;stroke-linecap:butt;stroke-linejoin:miter;stroke:rgb(0%,0%,0%);stroke-opacity:1;stroke-miterlimit:10;" d="M 85.246094 218.195312 L 102.050781 227.328125 "/>
<path style="fill:none;stroke-width:1.2;stroke-linecap:butt;stroke-linejoin:miter;stroke:rgb(0%,0%,100%);stroke-opacity:1;stroke-miterlimit:10;" d="M 68.445312 209.058594 L 67.953125 189.941406 "/>
<path style="fill:none;stroke-width:1.2;stroke-linecap:butt;stroke-linejoin:miter;stroke:rgb(0%,0%,0%);stroke-opacity:1;stroke-miterlimit:10;" d="M 67.953125 189.941406 L 67.460938 170.824219 "/>
<path style=" stroke:none;fill-rule:nonzero;fill:rgb(100%,100%,100%);fill-opacity:1;" d="M 62.445312 199.558594 L 74.445312 199.558594 L 74.445312 218.558594 L 62.445312 218.558594 Z M 62.445312 199.558594 "/>
<g style="fill:rgb(0%,0%,100%);fill-opacity:1;">
  <use xlink:href="#glyph0-1" x="62.445312" y="214.410156"/>
</g>
<path style="fill:none;stroke-width:1.2;stroke-linecap:butt;stroke-linejoin:miter;stroke:rgb(0%,0%,0%);stroke-opacity:1;stroke-miterlimit:10;" d="M 67.460938 170.824219 L 50.65625 161.691406 "/>
<path style="fill:none;stroke-width:1.2;stroke-linecap:butt;stroke-linejoin:miter;stroke:rgb(0%,0%,100%);stroke-opacity:1;stroke-miterlimit:10;" d="M 50.65625 161.691406 L 33.851562 152.558594 "/>
<path style="fill:none;stroke-width:1.2;stroke-linecap:butt;stroke-linejoin:miter;stroke:rgb(0%,0%,0%);stroke-opacity:1;stroke-miterlimit:10;" d="M 68.398438 161.089844 L 54.953125 153.78125 "/>
<path style="fill:none;stroke-width:1.2;stroke-linecap:butt;stroke-linejoin:miter;stroke:rgb(0%,0%,100%);stroke-opacity:1;stroke-miterlimit:10;" d="M 54.953125 153.78125 L 41.511719 146.476562 "/>
<path style="fill:none;stroke-width:1.2;stroke-linecap:butt;stroke-linejoin:miter;stroke:rgb(0%,0%,0%);stroke-opacity:1;stroke-miterlimit:10;" d="M 100.082031 150.851562 L 67.460938 170.824219 "/>
<path style="fill:none;stroke-width:1.2;stroke-linecap:butt;stroke-linejoin:miter;stroke:rgb(0%,0%,100%);stroke-opacity:1;stroke-miterlimit:10;" d="M 33.851562 152.558594 L 33.359375 133.4375 "/>
<path style="fill:none;stroke-width:1.2;stroke-linecap:butt;stroke-linejoin:miter;stroke:rgb(0%,0%,0%);stroke-opacity:1;stroke-miterlimit:10;" d="M 33.359375 133.4375 L 32.871094 114.320312 "/>
<path style=" stroke:none;fill-rule:nonzero;fill:rgb(100%,100%,100%);fill-opacity:1;" d="M 27.851562 143.058594 L 39.851562 143.058594 L 39.851562 162.058594 L 27.851562 162.058594 Z M 27.851562 143.058594 "/>
<g style="fill:rgb(0%,0%,100%);fill-opacity:1;">
  <use xlink:href="#glyph0-1" x="27.851562" y="157.910156"/>
</g>
<path style="fill:none;stroke-width:1.2;stroke-linecap:butt;stroke-linejoin:miter;stroke:rgb(0%,0%,0%);stroke-opacity:1;stroke-miterlimit:10;" d="M 32.871094 114.320312 L 49.179688 104.332031 "/>
<path style="fill:none;stroke-width:1.2;stroke-linecap:butt;stroke-linejoin:miter;stroke:rgb(0%,0%,100%);stroke-opacity:1;stroke-miterlimit:10;" d="M 49.179688 104.332031 L 65.492188 94.347656 "/>
<path style="fill:none;stroke-width:1.2;stroke-linecap:butt;stroke-linejoin:miter;stroke:rgb(0%,0%,0%);stroke-opacity:1;stroke-miterlimit:10;" d="M 40.832031 120 L 53.878906 112.007812 "/>
<path style="fill:none;stroke-width:1.2;stroke-linecap:butt;stroke-linejoin:miter;stroke:rgb(0%,0%,100%);stroke-opacity:1;stroke-miterlimit:10;" d="M 53.878906 112.007812 L 66.929688 104.019531 "/>
<path style="fill:none;stroke-width:1.2;stroke-linecap:butt;stroke-linejoin:miter;stroke:rgb(0%,0%,100%);stroke-opacity:1;stroke-miterlimit:10;" d="M 65.492188 94.347656 L 82.292969 103.480469 "/>
<path style="fill:none;stroke-width:1.2;stroke-linecap:butt;stroke-linejoin:miter;stroke:rgb(0%,0%,0%);stroke-opacity:1;stroke-miterlimit:10;" d="M 82.292969 103.480469 L 99.097656 112.613281 "/>
<path style=" stroke:none;fill-rule:nonzero;fill:rgb(100%,100%,100%);fill-opacity:1;" d="M 59.492188 84.847656 L 71.492188 84.847656 L 71.492188 103.847656 L 59.492188 103.847656 Z M 59.492188 84.847656 "/>
<g style="fill:rgb(0%,0%,100%);fill-opacity:1;">
  <use xlink:href="#glyph0-1" x="59.492188" y="99.699219"/>
</g>
<path style="fill:none;stroke-width:1.2;stroke-linecap:butt;stroke-linejoin:miter;stroke:rgb(0%,0%,0%);stroke-opacity:1;stroke-miterlimit:10;" d="M 99.097656 112.613281 L 100.082031 150.851562 "/>
<path style="fill:none;stroke-width:1.2;stroke-linecap:butt;stroke-linejoin:miter;stroke:rgb(0%,0%,0%);stroke-opacity:1;stroke-miterlimit:10;" d="M 108.195312 116.207031 L 108.980469 146.796875 "/>
<path style="fill:none;stroke-width:1.2;stroke-linecap:butt;stroke-linejoin:miter;stroke:rgb(0%,0%,0%);stroke-opacity:1;stroke-miterlimit:10;" d="M 131.71875 92.644531 L 99.097656 112.613281 "/>
<path style="fill:none;stroke-width:1.2;stroke-linecap:butt;stroke-linejoin:miter;stroke:rgb(0%,0%,0%);stroke-opacity:1;stroke-miterlimit:10;" d="M 100.082031 150.851562 L 133.6875 169.117188 "/>
<path style="fill:none;stroke-width:1.2;stroke-linecap:butt;stroke-linejoin:miter;stroke:rgb(0%,0%,0%);stroke-opacity:1;stroke-miterlimit:10;" d="M 133.6875 169.117188 L 166.3125 149.148438 "/>
<path style="fill:none;stroke-width:1.2;stroke-linecap:butt;stroke-linejoin:miter;stroke:rgb(0%,0%,0%);stroke-opacity:1;stroke-miterlimit:10;" d="M 132.253906 159.445312 L 158.351562 143.46875 "/>
<path style="fill:none;stroke-width:1.2;stroke-linecap:butt;stroke-linejoin:miter;stroke:rgb(0%,0%,0%);stroke-opacity:1;stroke-miterlimit:10;" d="M 166.3125 149.148438 L 165.328125 110.910156 "/>
<path style="fill:none;stroke-width:1.2;stroke-linecap:butt;stroke-linejoin:miter;stroke:rgb(0%,0%,0%);stroke-opacity:1;stroke-miterlimit:10;" d="M 166.3125 149.148438 L 199.917969 167.414062 "/>
<path style="fill:none;stroke-width:1.2;stroke-linecap:butt;stroke-linejoin:miter;stroke:rgb(0%,0%,0%);stroke-opacity:1;stroke-miterlimit:10;" d="M 165.328125 110.910156 L 131.71875 92.644531 "/>
<path style="fill:none;stroke-width:1.2;stroke-linecap:butt;stroke-linejoin:miter;stroke:rgb(0%,0%,0%);stroke-opacity:1;stroke-miterlimit:10;" d="M 157.667969 116.992188 L 130.785156 102.378906 "/>
<path style="fill:none;stroke-width:1.2;stroke-linecap:butt;stroke-linejoin:miter;stroke:rgb(0%,0%,0%);stroke-opacity:1;stroke-miterlimit:10;" d="M 199.917969 167.414062 L 200.902344 205.652344 "/>
<path style="fill:none;stroke-width:1.2;stroke-linecap:butt;stroke-linejoin:miter;stroke:rgb(0%,0%,0%);stroke-opacity:1;stroke-miterlimit:10;" d="M 209.011719 171.007812 L 209.800781 201.597656 "/>
<path style="fill:none;stroke-width:1.2;stroke-linecap:butt;stroke-linejoin:miter;stroke:rgb(0%,0%,0%);stroke-opacity:1;stroke-miterlimit:10;" d="M 232.539062 147.441406 L 199.917969 167.414062 "/>
<path style="fill:none;stroke-width:1.2;stroke-linecap:butt;stroke-linejoin:miter;stroke:rgb(0%,0%,0%);stroke-opacity:1;stroke-miterlimit:10;" d="M 200.902344 205.652344 L 234.507812 223.917969 "/>
<path style="fill:none;stroke-width:1.2;stroke-linecap:butt;stroke-linejoin:miter;stroke:rgb(0%,0%,0%);stroke-opacity:1;stroke-miterlimit:10;" d="M 234.507812 223.917969 L 267.128906 203.945312 "/>
<path style="fill:none;stroke-width:1.2;stroke-linecap:butt;stroke-linejoin:miter;stroke:rgb(0%,0%,0%);stroke-opacity:1;stroke-miterlimit:10;" d="M 233.070312 214.246094 L 259.167969 198.269531 "/>
<path style="fill:none;stroke-width:1.2;stroke-linecap:butt;stroke-linejoin:miter;stroke:rgb(0%,0%,0%);stroke-opacity:1;stroke-miterlimit:10;" d="M 267.128906 203.945312 L 266.148438 165.710938 "/>
<path style="fill:none;stroke-width:1.2;stroke-linecap:butt;stroke-linejoin:miter;stroke:rgb(0%,0%,0%);stroke-opacity:1;stroke-miterlimit:10;" d="M 266.148438 165.710938 L 232.539062 147.441406 "/>
<path style="fill:none;stroke-width:1.2;stroke-linecap:butt;stroke-linejoin:miter;stroke:rgb(0%,0%,0%);stroke-opacity:1;stroke-miterlimit:10;" d="M 258.488281 171.789062 L 231.601562 157.175781 "/>
<path style="fill:none;stroke-width:1.2;stroke-linecap:butt;stroke-linejoin:miter;stroke:rgb(0%,0%,0%);stroke-opacity:1;stroke-miterlimit:10;" d="M 232.539062 147.441406 L 231.554688 109.207031 "/>
<path style="fill:none;stroke-width:1.2;stroke-linecap:butt;stroke-linejoin:miter;stroke:rgb(0%,0%,0%);stroke-opacity:1;stroke-miterlimit:10;" d="M 231.554688 109.207031 L 231.0625 90.085938 "/>
<path style="fill:none;stroke-width:1.2;stroke-linecap:butt;stroke-linejoin:miter;stroke:rgb(0%,0%,100%);stroke-opacity:1;stroke-miterlimit:10;" d="M 231.0625 90.085938 L 230.570312 70.96875 "/>
<path style="fill:none;stroke-width:1.2;stroke-linecap:butt;stroke-linejoin:miter;stroke:rgb(0%,0%,0%);stroke-opacity:1;stroke-miterlimit:10;" d="M 240.453125 105.152344 L 240.0625 89.855469 "/>
<path style="fill:none;stroke-width:1.2;stroke-linecap:butt;stroke-linejoin:miter;stroke:rgb(0%,0%,100%);stroke-opacity:1;stroke-miterlimit:10;" d="M 240.0625 89.855469 L 239.667969 74.5625 "/>
<path style="fill:none;stroke-width:1.2;stroke-linecap:butt;stroke-linejoin:miter;stroke:rgb(0%,0%,0%);stroke-opacity:1;stroke-miterlimit:10;" d="M 222.460938 105.613281 L 222.066406 90.320312 "/>
<path style="fill:none;stroke-width:1.2;stroke-linecap:butt;stroke-linejoin:miter;stroke:rgb(0%,0%,100%);stroke-opacity:1;stroke-miterlimit:10;" d="M 222.066406 90.320312 L 221.671875 75.023438 "/>
<path style=" stroke:none;fill-rule:nonzero;fill:rgb(100%,100%,100%);fill-opacity:1;" d="M 224.570312 61.46875 L 236.570312 61.46875 L 236.570312 80.46875 L 224.570312 80.46875 Z M 224.570312 61.46875 "/>
<g style="fill:rgb(0%,0%,100%);fill-opacity:1;">
  <use xlink:href="#glyph0-1" x="224.570312" y="76.320312"/>
</g>
</g>
</svg>

<svg xmlns="http://www.w3.org/2000/svg" xmlns:xlink="http://www.w3.org/1999/xlink" width="300pt" height="300pt" viewBox="0 0 300 300"><defs><symbol overflow="visible"><path d="M.797 2.828v-14.11h8V2.83zm.906-.89h6.203v-12.33H1.703zm0 0"/></symbol><symbol overflow="visible" id="a"><path d="M1.578-11.672h2.125l5.172 9.766v-9.766h1.53V0H8.282L3.11-9.766V0H1.577zm0 0"/></symbol></defs><g><path fill="#fff" d="M0 0h300v300H0z"/><path d="M35.82 229.03l16.313-9.983" stroke-width="1.2" stroke="#000" stroke-miterlimit="10" fill="none"/><path d="M52.133 219.047l16.312-9.988M68.445 209.06l16.8 9.135" stroke-width="1.2" stroke="#00f" stroke-miterlimit="10" fill="none"/><path d="M85.246 218.195l16.805 9.133" stroke-width="1.2" stroke="#000" stroke-miterlimit="10" fill="none"/><path d="M68.445 209.06l-.492-19.12" stroke-width="1.2" stroke="#00f" stroke-miterlimit="10" fill="none"/><path d="M67.953 189.94l-.492-19.116" stroke-width="1.2" stroke="#000" stroke-miterlimit="10" fill="none"/><path d="M62.445 199.56h12v19h-12zm0 0" fill="#fff"/><use xlink:href="#a" x="62.445" y="214.41" fill="#00f"/><path d="M67.46 170.824l-16.804-9.133" stroke-width="1.2" stroke="#000" stroke-miterlimit="10" fill="none"/><path d="M50.656 161.69l-16.804-9.13" stroke-width="1.2" stroke="#00f" stroke-miterlimit="10" fill="none"/><path d="M68.398 161.09l-13.445-7.31" stroke-width="1.2" stroke="#000" stroke-miterlimit="10" fill="none"/><path d="M54.953 153.78l-13.44-7.303" stroke-width="1.2" stroke="#00f" stroke-miterlimit="10" fill="none"/><path d="M100.082 150.852l-32.62 19.972" stroke-width="1.2" stroke="#000" stroke-miterlimit="10" fill="none"/><path d="M33.852 152.56l-.493-19.123" stroke-width="1.2" stroke="#00f" stroke-miterlimit="10" fill="none"/><path d="M33.36 133.438l-.49-19.118" stroke-width="1.2" stroke="#000" stroke-miterlimit="10" fill="none"/><path d="M27.852 143.06h12v19h-12zm0 0" fill="#fff"/><use xlink:href="#a" x="27.852" y="157.91" fill="#00f"/><path d="M32.87 114.32l16.31-9.988" stroke-width="1.2" stroke="#000" stroke-miterlimit="10" fill="none"/><path d="M49.18 104.332l16.312-9.984" stroke-width="1.2" stroke="#00f" stroke-miterlimit="10" fill="none"/><path d="M40.832 120l13.047-7.992" stroke-width="1.2" stroke="#000" stroke-miterlimit="10" fill="none"/><path d="M53.88 112.008l13.05-7.988M65.492 94.348l16.8 9.132" stroke-width="1.2" stroke="#00f" stroke-miterlimit="10" fill="none"/><path d="M82.293 103.48l16.805 9.133" stroke-width="1.2" stroke="#000" stroke-miterlimit="10" fill="none"/><path d="M59.492 84.848h12v19h-12zm0 0" fill="#fff"/><use xlink:href="#a" x="59.492" y="99.699" fill="#00f"/><path d="M99.098 112.613l.984 38.24M108.195 116.207l.785 30.59M131.72 92.645l-32.622 19.968M100.082 150.852l33.606 18.265M133.688 169.117l32.625-19.97M132.254 159.445l26.098-15.976M166.313 149.148l-.985-38.238M166.313 149.148l33.605 18.266M165.328 110.91l-33.61-18.265M157.668 116.992l-26.883-14.613M199.918 167.414l.984 38.238M209.012 171.008l.79 30.59M232.54 147.44l-32.622 19.974M200.902 205.652l33.606 18.266M234.508 223.918l32.62-19.973M233.07 214.246l26.098-15.976M267.13 203.945l-.982-38.234M266.148 165.71l-33.61-18.27M258.488 171.79l-26.886-14.614M232.54 147.44l-.985-38.233M231.555 109.207l-.493-19.12" stroke-width="1.2" stroke="#000" stroke-miterlimit="10" fill="none"/><path d="M231.063 90.086l-.493-19.117" stroke-width="1.2" stroke="#00f" stroke-miterlimit="10" fill="none"/><path d="M240.453 105.152l-.39-15.297" stroke-width="1.2" stroke="#000" stroke-miterlimit="10" fill="none"/><path d="M240.063 89.855l-.395-15.293" stroke-width="1.2" stroke="#00f" stroke-miterlimit="10" fill="none"/><path d="M222.46 105.613l-.394-15.293" stroke-width="1.2" stroke="#000" stroke-miterlimit="10" fill="none"/><path d="M222.066 90.32l-.394-15.297" stroke-width="1.2" stroke="#00f" stroke-miterlimit="10" fill="none"/><path d="M224.57 61.47h12v19h-12zm0 0" fill="#fff"/><use xlink:href="#a" x="224.57" y="76.32" fill="#00f"/></g></svg>
